download/Auto Hobbyist by Thomas-2/03_AH_Outdoor_Open_Shade_Clean.xmp
<x:xmpmeta xmlns:x="adobe:ns:meta/" x:xmptk="Adobe XMP Core 5.6">
 <rdf:RDF xmlns:rdf="http://www.w3.org/1999/02/22-rdf-syntax-ns#">
  <rdf:Description rdf:about=""
   xmlns:crs="http://ns.adobe.com/camera-raw-settings/1.0/"
   crs:PresetType="Normal"
   crs:Cluster="Auto Hobbyist by Thomas"
   crs:UUID="B0BFE37F702649A9A6496A2ECDF4A3FA"
   crs:SupportsAmount="True"
   crs:SupportsColor="True"
   crs:SupportsMonochrome="True"
   crs:SupportsHighDynamicRange="True"
   crs:SupportsNormalDynamicRange="True"
   crs:SupportsSceneReferred="True"
   crs:SupportsOutputReferred="True"
   crs:Version="13.0"
   crs:ProcessVersion="11.0">
   <crs:Exposure2012>0</crs:Exposure2012>
   <crs:Contrast2012>10</crs:Contrast2012>
   <crs:Highlights2012>-40</crs:Highlights2012>
   <crs:Shadows2012>55</crs:Shadows2012>
   <crs:Whites2012>-8</crs:Whites2012>
   <crs:Blacks2012>-8</crs:Blacks2012>
   <crs:Texture>-4</crs:Texture>
   <crs:Clarity2012>6</crs:Clarity2012>
   <crs:Dehaze>1</crs:Dehaze>
   <crs:Vibrance>12</crs:Vibrance>
   <crs:Saturation>-2</crs:Saturation>
   <crs:CameraProfile>Adobe Neutral</crs:CameraProfile>
   <crs:WhiteBalance>As Shot</crs:WhiteBalance>
   <crs:SharpenAmount>60</crs:SharpenAmount>
   <crs:SharpenRadius>1</crs:SharpenRadius>
   <crs:SharpenDetail>20</crs:SharpenDetail>
   <crs:SharpenEdgeMasking>99</crs:SharpenEdgeMasking>
   <crs:LuminanceSmoothing>10</crs:LuminanceSmoothing>
   <crs:LuminanceDetail>50</crs:LuminanceDetail>
   <crs:LuminanceContrast>0</crs:LuminanceContrast>
   <crs:ColorNoiseReduction>25</crs:ColorNoiseReduction>
   <crs:ColorNoiseReductionDetail>50</crs:ColorNoiseReductionDetail>
   <crs:ColorNoiseReductionSmoothness>50</crs:ColorNoiseReductionSmoothness>
   <crs:HueAdjustmentRed>0</crs:HueAdjustmentRed>
   <crs:HueAdjustmentOrange>0</crs:HueAdjustmentOrange>
   <crs:HueAdjustmentYellow>-8</crs:HueAdjustmentYellow>
   <crs:HueAdjustmentGreen>-8</crs:HueAdjustmentGreen>
   <crs:HueAdjustmentAqua>0</crs:HueAdjustmentAqua>
   <crs:HueAdjustmentBlue>-5</crs:HueAdjustmentBlue>
   <crs:HueAdjustmentPurple>0</crs:HueAdjustmentPurple>
   <crs:HueAdjustmentMagenta>0</crs:HueAdjustmentMagenta>
   <crs:SaturationAdjustmentRed>-6</crs:SaturationAdjustmentRed>
   <crs:SaturationAdjustmentOrange>-4</crs:SaturationAdjustmentOrange>
   <crs:SaturationAdjustmentYellow>-18</crs:SaturationAdjustmentYellow>
   <crs:SaturationAdjustmentGreen>-15</crs:SaturationAdjustmentGreen>
   <crs:SaturationAdjustmentAqua>-6</crs:SaturationAdjustmentAqua>
   <crs:SaturationAdjustmentBlue>-10</crs:SaturationAdjustmentBlue>
   <crs:SaturationAdjustmentPurple>-4</crs:SaturationAdjustmentPurple>
   <crs:SaturationAdjustmentMagenta>-4</crs:SaturationAdjustmentMagenta>
   <crs:LuminanceAdjustmentRed>0</crs:LuminanceAdjustmentRed>
   <crs:LuminanceAdjustmentOrange>4</crs:LuminanceAdjustmentOrange>
   <crs:LuminanceAdjustmentYellow>-6</crs:LuminanceAdjustmentYellow>
   <crs:LuminanceAdjustmentGreen>-6</crs:LuminanceAdjustmentGreen>
   <crs:LuminanceAdjustmentAqua>-4</crs:LuminanceAdjustmentAqua>
   <crs:LuminanceAdjustmentBlue>-12</crs:LuminanceAdjustmentBlue>
   <crs:LuminanceAdjustmentPurple>0</crs:LuminanceAdjustmentPurple>
   <crs:LuminanceAdjustmentMagenta>0</crs:LuminanceAdjustmentMagenta>
   <crs:ShadowsTint>3</crs:ShadowsTint>
   <crs:RedPrimaryHue>6</crs:RedPrimaryHue>
   <crs:RedPrimarySaturation>-6</crs:RedPrimarySaturation>
   <crs:GreenPrimaryHue>4</crs:GreenPrimaryHue>
   <crs:GreenPrimarySaturation>0</crs:GreenPrimarySaturation>
   <crs:BluePrimaryHue>-6</crs:BluePrimaryHue>
   <crs:BluePrimarySaturation>6</crs:BluePrimarySaturation>
   <crs:LensProfileEnable>1</crs:LensProfileEnable>
   <crs:RemoveChromaticAberration>True</crs:RemoveChromaticAberration>
   <crs:Name>
    <rdf:Alt><rdf:li xml:lang="x-default">Auto Hobbyist - Outdoor - Open Shade Clean - by Thomas</rdf:li></rdf:Alt>
   </crs:Name>
   <crs:Group>
    <rdf:Alt><rdf:li xml:lang="x-default">Auto Hobbyist - All Presets - by Thomas</rdf:li></rdf:Alt>
   </crs:Group>
  </rdf:Description>
 </rdf:RDF>
</x:xmpmeta>
